X:44
T:Humours of Ennistymon
M:6/8
L:1/8
Z:robin.beech@mcgill.ca
R:jig
K:G
BAB GBd | cBc ABc | BcB GBd | cAG FGA |
B2B GBd | cBc ABc | ded cAF | AGF G3 ::
fgf fed | cAG FGA | Bgg gfg | afd d2 e |
fgf fed | cAG FGA | BdB cAF | AGF GBd ::
gdB gdB | ecA ecA | BcB GBd | cAG FGA |1
gdB gdB | ecA ecA | BAB cAF| AGF G3 :|2
BAB GBd | cBc ABc | ded cAF | AGF G3 |]
